X:1
T:Durch mein fleissiges
T:Gemignano Capilupi
T:Source : Canzonette mit 3 Stimmen/ H.Vecchi und G.Capilupi---Nürnberg---P.Kauffmann---1606. Editor : André Vierendeels (25/02/17).
T:Notes : Original clefs : C1, C1, C4 Text Middle German by Valentin Hauszmann German Contrafactum of "Piangete occhi" 1597 
T:Durch mein fleissiges
T:©
T:©
T:©
C:Gemignano Capilupi
Z:©
%%score [ 1 2 3 ]
L:1/8
Q:1/4=100
M:4/4
K:F
V:1 treble nm="Soprano 1" snm="S 1"
V:2 treble nm="Soprano 2" snm="S 2"
V:3 treble-8 nm="Tenor" snm="T"
V:1
"^1)" d8 | d4 _e4- | e2 _e2 d4 | c8- | c4 d4 | B3 A G4- | G2 F2 E4 | D4 A4 | A2 A2 A2 A2 | B8- | %10
w: Durch|mein fleis-|* si- ges|und|_ vil-|fal- tigs bit-||ten, kan|ich feins Lieb bey|dir|
w: Mei-|ne kläg-|* li- ge|stimm|_ thust|du _ _|_ wol hö-|ren, und|sichst wie ich gegn|dir|
 B4 _e4- | e4 d4- | d4 d4 | d2 e2 f2 ed | c2 A2 d4- | d4 ^c4 | d8 :: A2 A2 A4 | c2 d2 c4- | c4 z4 | %20
w: _ ditz|_ nicht|_ er-|hal- * * * *|||ten,|dasz du be-|dächtst, was ich|_|
w: _ mein|_ Händ|_ thu|fal- * * * *|||ten,|noch wilt du|dich dar- an|_|
 z2 G2 c4- | c2 B2 A4 | G4 z2 A2- | AA A2 B2 c2 | d4 z2 d2 | c6 B2 | A8 | G8 :| %28
w: deint- wegn|_ er- lid-|ten, das|_ du be- dächtst, was|ich deint-|wegn er-|lid-|ten.|
w: doch gar|_ nicht keh-|ren, noch|_ wilt du dich dar-|an doch|gar nicht|keh-|ren.|
V:2
"^2)""^1)" B8 | B4 B4- | B2 B2 B4 | A8- | A4 A4 | G3 F E2 D2 | ^C2 D4 C2 | D8 | z4 F4 | %9
w: Durch|mein fleis-|* si- ges|und|_ vil-|fal- tigs bit- *||ten,|kan|
w: Wenn|du eins|_ von mir|recht|_ sol-|test _ _ _|wis- * *|sen,|was|
 F2 G2 G2 G2 | G4 G4 | B4 A4 | B2 c2 d2 c2 | B2 AG F2 G2 | A6 GF | E2 D2 E4 | D8 :: F2 F2 F4 | %18
w: ich feins Lieb bey|dir ditz|nicht er-|hal- * * *||||ten,|dasz du be-|
w: mei- ne treu- e|Lieb mir|brecht für|schmer- * * *||||zen,|du wür- dest|
 G2 B2 A4- | A4 z2 G2 | c2 B2 A2 G2 | ^F2 G4 F2 | G4 z2 ^F2- | F^F F2 G2 A2 | B2 F2 F2 G2 | %25
w: dächtst, was ich|_ deint-|wegn er- lid- *||ten, das|_ du be- dächtst, was|ich deint- wegn er-|
w: die- se stund|_ mir|sein ge- flis- *||sen, du|_ wür- dest die- se|stund mir sein ge-|
 A2 G2 G4- | G4 ^F4 | G8 :| %28
w: lid- * *||ten,|
w: flis- * *||sen.|
V:3
"^3)""^4)""^1)" B8 | G4 _E4- | E2 _E2 B,4 | F8- | F4 F4 | G4 G4 | A8 | D8 | z4 d4 | d2 _e2 e2 e2 | %10
w: Durch|mein fleis-|* si- ges|und|_ vil-|fal- tigs|bit-|ten,|kan|ich feins Lieb bey|
w: Ich|mach das|_ ich dein|Lieb|_ und|Huld er-|wer-|be,|und|sey nicht stets so|
 _E6 F2 | G4 ^F4 | G2 A2 B2 A2 | G2 FE D2 E2 | F6 ED | A8 | D8 :: d2 d2 d4 | c2 B2 f4- | f4 g4 | %20
w: dir ditz|nich er-|hal- * * *||||ten,|dasz du be-|dächtst, was ich|_ deint-|
w: hart in|dei- nen|Hert- * * *||||zen,|sonst gibst du|ur- sach mir|_ dasz|
 c4 c4 | d8 | G4 z2 D2- | DD D2 G2 F2 | B4 B,4 | C4 C4 | D8 | G8 :| %28
w: wegn er-|lid-|ten, das|_ du be- dächtst, was|ich deint-|wegn er-|lid|ten.|
w: ich bald|ster-|be, sonst|_ gibt du ur- sach|mir dasz|ich bald|ster-|be.|

